docs/img/icons/icon-clock.svg

<svg width="32" height="32" viewBox="0 0 32 32" fill="none" xmlns="http://www.w3.org/2000/svg">
<path d="M28.5857 6.12105H29.5744C29.9193 6.12105 30.199 5.84135 30.199 5.49646C30.199 5.15156 29.9193 4.87187 29.5744 4.87187H27.201C26.8561 4.87187 26.5764 5.15156 26.5764 5.49646V7.8699C26.5764 8.2148 26.8561 8.49449 27.201 8.49449C27.5459 8.49449 27.8256 8.2148 27.8256 7.8699V7.18266C29.7207 9.71981 30.7508 12.7982 30.7508 16C30.7508 24.1337 24.1337 30.7508 16 30.7508C7.86634 30.7508 1.24918 24.1337 1.24918 16C1.24918 7.86634 7.86634 1.24918 16 1.24918C16.6015 1.24918 17.207 1.28572 17.7996 1.35773C18.1415 1.39908 18.4534 1.15555 18.495 0.813091C18.5366 0.470691 18.2928 0.15927 17.9503 0.117673C17.3079 0.039599 16.6518 0 16 0C11.7262 0 7.70825 1.66428 4.6863 4.6863C1.66428 7.70825 0 11.7262 0 16C0 20.2738 1.66428 24.2917 4.6863 27.3137C7.70825 30.3357 11.7262 32 16 32C20.2738 32 24.2917 30.3357 27.3137 27.3137C30.3357 24.2917 32 20.2738 32 16C32 12.3936 30.7952 8.93133 28.5857 6.12105Z" fill="#C3167C"/>
<path d="M6.77487 9.43211C6.48337 9.24761 6.09756 9.33443 5.91299 9.62574C4.48712 11.8778 3.85591 14.5861 4.13566 17.2519C4.41954 19.9573 5.63718 22.5085 7.56429 24.4356C9.88995 26.7613 12.9449 27.9242 15.9999 27.9242C19.0549 27.9242 22.1097 26.7614 24.4355 24.4356C29.0868 19.7843 29.0868 12.2158 24.4355 7.56453C22.5113 5.64041 19.9643 4.42321 17.2634 4.13715C14.6025 3.85515 11.8971 4.48143 9.64604 5.90031C9.35417 6.08425 9.26679 6.46993 9.45067 6.76174C9.63462 7.05361 10.0203 7.14099 10.3121 6.95711C14.5554 4.28262 19.9998 4.89553 23.5521 8.44782C27.7164 12.6122 27.7164 19.388 23.5521 23.5523C19.3878 27.7167 12.6119 27.7167 8.44764 23.5523C4.94444 20.0491 4.32235 14.4732 6.96849 10.294C7.15293 10.0026 7.0663 9.61668 6.77487 9.43211Z" fill="#C3167C"/>
<path d="M24.1197 16.6347H24.89C25.2349 16.6347 25.5145 16.355 25.5145 16.0101C25.5145 15.6652 25.2349 15.3855 24.89 15.3855H24.1197C23.7748 15.3855 23.4951 15.6652 23.4951 16.0101C23.4951 16.355 23.7747 16.6347 24.1197 16.6347Z" fill="#C3167C"/>
<path d="M6.48535 15.9898C6.48535 16.3347 6.76504 16.6144 7.10994 16.6144H7.88018C8.22508 16.6144 8.50477 16.3347 8.50477 15.9898C8.50477 15.6449 8.22508 15.3652 7.88018 15.3652H7.10994C6.76504 15.3652 6.48535 15.6449 6.48535 15.9898Z" fill="#C3167C"/>
<path d="M16.6349 7.88043V7.11018C16.6349 6.76529 16.3552 6.4856 16.0103 6.4856C15.6654 6.4856 15.3857 6.76529 15.3857 7.11018V7.88043C15.3857 8.22533 15.6654 8.50502 16.0103 8.50502C16.3552 8.50502 16.6349 8.22533 16.6349 7.88043Z" fill="#C3167C"/>
<path d="M15.3652 24.1197V24.89C15.3652 25.2349 15.6449 25.5145 15.9898 25.5145C16.3347 25.5145 16.6144 25.2349 16.6144 24.89V24.1197C16.6144 23.7748 16.3347 23.4951 15.9898 23.4951C15.6449 23.4951 15.3652 23.7747 15.3652 24.1197Z" fill="#C3167C"/>
<path d="M12.8695 11.9859C12.6255 11.7421 12.2302 11.7421 11.9861 11.9859C11.7422 12.2298 11.7422 12.6253 11.9861 12.8693L14.1029 14.9861C13.9407 15.2884 13.8485 15.6336 13.8485 16C13.8485 17.1864 14.8137 18.1517 16.0002 18.1517C17.1867 18.1517 18.1519 17.1864 18.1519 16C18.1519 15.6336 18.0596 15.2884 17.8975 14.9861L22.1686 10.7149C22.4125 10.471 22.4125 10.0755 22.1686 9.83156C21.9246 9.58772 21.5293 9.58772 21.2852 9.83156L17.0141 14.1027C16.7118 13.9405 16.3666 13.8482 16.0002 13.8482C15.6338 13.8482 15.2886 13.9406 14.9863 14.1027L12.8695 11.9859ZM16.9027 16C16.9027 16.4976 16.4979 16.9025 16.0002 16.9025C15.5025 16.9025 15.0977 16.4976 15.0977 16C15.0977 15.5023 15.5025 15.0974 16.0002 15.0974C16.4979 15.0974 16.9027 15.5023 16.9027 16Z" fill="#C3167C"/>
<path d="M8.44752 8.44728C8.56431 8.3311 8.63108 8.16996 8.63108 8.00569C8.63108 7.84143 8.56431 7.68091 8.44752 7.56411C8.33134 7.448 8.17076 7.3811 8.00593 7.3811C7.84167 7.3811 7.68052 7.44793 7.56435 7.56411C7.44824 7.68028 7.38135 7.84143 7.38135 8.00569C7.38135 8.17058 7.44818 8.3311 7.56435 8.44728C7.68052 8.56339 7.84167 8.63028 8.00593 8.63028C8.17076 8.63028 8.33134 8.56339 8.44752 8.44728Z" fill="#C3167C"/>
<path d="M20.3267 1.86612C20.4917 1.86612 20.6528 1.79985 20.7689 1.68312C20.8851 1.56694 20.952 1.40636 20.952 1.24153C20.952 1.07727 20.8852 0.916122 20.7689 0.799948C20.6528 0.683837 20.4917 0.616943 20.3267 0.616943C20.1625 0.616943 20.0013 0.683774 19.8852 0.799948C19.769 0.916122 19.7021 1.07727 19.7021 1.24153C19.7021 1.40643 19.769 1.56694 19.8852 1.68312C20.0013 1.79985 20.1625 1.86612 20.3267 1.86612Z" fill="#C3167C"/>
</svg>

<svg width="32" height="32" fill="none" xmlns="http://www.w3.org/2000/svg"><path d="M28.586 6.121h.988a.625.625 0 000-1.25h-2.373a.625.625 0 00-.625.625V7.87a.625.625 0 001.25 0v-.687A14.703 14.703 0 0130.75 16c0 8.134-6.617 14.75-14.751 14.75S1.25 24.135 1.25 16 7.865 1.25 16 1.25c.602 0 1.207.036 1.8.108a.625.625 0 00.15-1.24A16.225 16.225 0 0016 0 15.895 15.895 0 004.686 4.686 15.895 15.895 0 000 16c0 4.274 1.664 8.292 4.686 11.314A15.895 15.895 0 0016 32c4.274 0 8.292-1.664 11.314-4.686A15.895 15.895 0 0032 16a15.95 15.95 0 00-3.414-9.879z" fill="#C3167C"/><path d="M6.775 9.432a.625.625 0 00-.862.194 11.975 11.975 0 00-1.777 7.626 11.957 11.957 0 003.428 7.184A11.893 11.893 0 0016 27.924c3.055 0 6.11-1.163 8.436-3.488 4.65-4.652 4.65-12.22 0-16.871a11.958 11.958 0 00-7.173-3.428A11.976 11.976 0 009.646 5.9a.625.625 0 00.666 1.057c4.243-2.674 9.688-2.061 13.24 1.49 4.164 4.165 4.164 10.941 0 15.105-4.164 4.165-10.94 4.165-15.104 0-3.504-3.503-4.126-9.079-1.48-13.258a.625.625 0 00-.193-.862z" fill="#C3167C"/><path d="M24.12 16.635h.77a.625.625 0 000-1.25h-.77a.625.625 0 000 1.25zM6.485 15.99c0 .345.28.624.625.624h.77a.625.625 0 000-1.249h-.77a.625.625 0 00-.625.625zm10.15-8.11v-.77a.625.625 0 00-1.25 0v.77a.625.625 0 001.25 0zm-1.27 16.24v.77a.625.625 0 001.25 0v-.77a.625.625 0 00-1.25 0zM12.87 11.986a.625.625 0 00-.884.883l2.117 2.117A2.154 2.154 0 0016 18.152a2.154 2.154 0 001.898-3.166l4.27-4.271a.625.625 0 00-.883-.883l-4.27 4.27a2.138 2.138 0 00-2.029 0l-2.117-2.116zM16.902 16a.904.904 0 01-1.805 0 .904.904 0 011.805 0zM8.448 8.447a.627.627 0 00.183-.441.628.628 0 00-.625-.625.63.63 0 00-.442.183.628.628 0 00.442 1.066.629.629 0 00.442-.183zm11.879-6.581a.627.627 0 00.625-.624.629.629 0 00-.625-.625.63.63 0 00-.625.625.628.628 0 00.625.624z" fill="#C3167C"/></svg>
